src/shared/assets/character/location.svg

<svg width="12" height="12" viewBox="0 0 12 12" fill="none" xmlns="http://www.w3.org/2000/svg">
<path d="M9.31289 2.08594C7.48594 0.292969 4.52227 0.292969 2.69531 2.08594C0.867188 3.88008 0.867188 6.78867 2.69531 8.58281L6.00469 11.2406L9.31406 8.58281C11.141 6.78867 11.141 3.88008 9.31289 2.08594ZM6.00469 7.30313C4.89727 7.30313 3.99961 6.42188 3.99961 5.33438C3.99961 4.24688 4.89727 3.36563 6.00469 3.36563C7.11211 3.36563 8.00977 4.24688 8.00977 5.33438C8.00977 6.42188 7.11211 7.30313 6.00469 7.30313Z" fill="white"/>
</svg>

<svg xmlns="http://www.w3.org/2000/svg" fill="none" viewBox="0 0 12 12"><path fill="#fff" d="M9.313 2.086c-1.827-1.793-4.79-1.793-6.618 0a4.534 4.534 0 0 0 0 6.497l3.31 2.658 3.31-2.658a4.535 4.535 0 0 0-.002-6.497M6.005 7.303C4.897 7.303 4 6.422 4 5.334c0-1.087.897-1.968 2.005-1.968s2.005.88 2.005 1.968-.898 1.97-2.005 1.97"/></svg>
